packages/icons/src/components/Logo/assets/light/nginx.svg

<svg width="20" height="20" viewBox="0 0 20 20" fill="none" xmlns="http://www.w3.org/2000/svg">
<path d="M17.6566 18.1426H17.7842V17.8584H17.8851C17.9518 17.8584 17.9997 17.8649 18.0269 17.8821C18.0715 17.9083 18.0943 17.9643 18.0943 18.0474V18.1057L18.0971 18.1274C18.0987 18.1322 18.0987 18.1342 18.0991 18.1365C18.0997 18.14 18.1 18.1411 18.1019 18.1426H18.2202L18.2159 18.1346C18.2124 18.1291 18.2104 18.1167 18.2102 18.0976C18.2085 18.0772 18.2085 18.0598 18.2085 18.0436V17.9898C18.2085 17.9536 18.1949 17.9167 18.1689 17.8772C18.1421 17.8391 18.1 17.8164 18.043 17.8064C18.088 17.7989 18.1234 17.7869 18.148 17.7723C18.1962 17.7419 18.2185 17.6925 18.2185 17.6293C18.2185 17.5383 18.1826 17.4762 18.1069 17.4457C18.0651 17.4286 17.9997 17.4199 17.909 17.4199H17.6566V18.1426V18.1426ZM18.0195 17.753C17.9939 17.764 17.9531 17.7691 17.8981 17.7691H17.7842V17.506H17.8929C17.9634 17.506 18.0145 17.516 18.0463 17.5342C18.0787 17.5523 18.0943 17.5873 18.0943 17.6397C18.0943 17.6956 18.0699 17.7323 18.0195 17.753ZM18.39 17.3185C18.2602 17.1904 18.1049 17.127 17.9214 17.127C17.7418 17.127 17.5851 17.1904 17.4582 17.3185C17.3284 17.447 17.2656 17.6025 17.2656 17.7849C17.2656 17.9672 17.3278 18.1232 17.4559 18.2511C17.5831 18.3809 17.7401 18.4453 17.9214 18.4453C18.1049 18.4453 18.2602 18.3809 18.39 18.2511C18.5172 18.1226 18.5829 17.9659 18.5829 17.7849C18.5829 17.6012 18.5172 17.447 18.39 17.3185ZM18.323 17.384C18.4341 17.4924 18.4885 17.6277 18.4885 17.785C18.4885 17.9406 18.4341 18.0769 18.323 18.1879C18.2137 18.2983 18.0793 18.355 17.9214 18.355C17.7647 18.355 17.6311 18.2983 17.5203 18.1879C17.4116 18.077 17.3556 17.9406 17.3556 17.785C17.3556 17.6277 17.4116 17.4924 17.5203 17.384C17.6327 17.2711 17.7657 17.2157 17.9214 17.2157C18.0787 17.2157 18.2124 17.2711 18.323 17.384Z" fill="#989898"/>
<path d="M1.1365 15.0003C1.23054 15.1634 1.36313 15.2907 1.51606 15.377L9.28078 19.8599L9.28102 19.8597C9.43251 19.9489 9.60871 20 9.79704 20C9.98537 20 10.1618 19.9489 10.3131 19.8597L18.078 15.3767C18.231 15.2904 18.363 15.1634 18.4573 15.0003C18.5516 14.8372 18.5955 14.659 18.5938 14.4833V5.51741L18.5935 5.51717C18.595 5.34169 18.5511 5.1633 18.4571 5.00018C18.3628 4.83707 18.2302 4.71006 18.0775 4.62353L10.3126 0.140578V0.140333C10.1613 0.0511389 9.98512 0 9.79679 0C9.60871 0 9.4325 0.0511389 9.28126 0.140333V0.140578L1.51655 4.62353C1.36361 4.71006 1.23103 4.83707 1.13675 5.00018C1.04271 5.1633 0.998836 5.34169 1.00029 5.51717L1.00005 5.51741V14.4833C0.998353 14.659 1.04222 14.8372 1.13626 15.0003" fill="#009639"/>
<path fill-rule="evenodd" clip-rule="evenodd" d="M4.06464 6.613C4.06464 6.42816 4.21448 6.27832 4.39931 6.27832H11.2219C11.4067 6.27832 11.5566 6.42816 11.5566 6.613V13.4356C11.5566 13.6204 11.4067 13.7703 11.2219 13.7703H4.39931C4.21448 13.7703 4.06464 13.6204 4.06464 13.4356V6.613ZM4.73399 6.94767V13.1009H10.8872V6.94767H4.73399Z" fill="white"/>
<path fill-rule="evenodd" clip-rule="evenodd" d="M13.0022 5.82217C13.0022 5.69925 13.1018 5.59961 13.2248 5.59961H15.1945C15.3174 5.59961 15.417 5.69925 15.417 5.82217V7.79188C15.417 7.91479 15.3174 8.01444 15.1945 8.01444H13.2248C13.1018 8.01444 13.0022 7.91479 13.0022 7.79188V5.82217ZM13.4473 6.04473V7.56932H14.9719V6.04473H13.4473Z" fill="white"/>
<path fill-rule="evenodd" clip-rule="evenodd" d="M13.0022 9.01504C13.0022 8.89212 13.1018 8.79248 13.2248 8.79248H15.1945C15.3174 8.79248 15.417 8.89212 15.417 9.01504V10.9848C15.417 11.1077 15.3174 11.2073 15.1945 11.2073H13.2248C13.1018 11.2073 13.0022 11.1077 13.0022 10.9848V9.01504ZM13.4473 9.2376V10.7622H14.9719V9.2376H13.4473Z" fill="white"/>
<path fill-rule="evenodd" clip-rule="evenodd" d="M13.0022 12.2079C13.0022 12.085 13.1018 11.9854 13.2248 11.9854H15.1945C15.3174 11.9854 15.417 12.085 15.417 12.2079V14.1776C15.417 14.3005 15.3174 14.4002 15.1945 14.4002H13.2248C13.1018 14.4002 13.0022 14.3005 13.0022 14.1776V12.2079ZM13.4473 12.4305V13.9551H14.9719V12.4305H13.4473Z" fill="white"/>
<path fill-rule="evenodd" clip-rule="evenodd" d="M11.1541 10.0248C11.1541 9.90189 11.2537 9.80225 11.3766 9.80225H13.109C13.2319 9.80225 13.3316 9.90189 13.3316 10.0248C13.3316 10.1477 13.2319 10.2474 13.109 10.2474H11.3766C11.2537 10.2474 11.1541 10.1477 11.1541 10.0248Z" fill="white"/>
<path fill-rule="evenodd" clip-rule="evenodd" d="M11.1073 10.7049C11.1818 10.6071 11.3214 10.5882 11.4192 10.6627L13.3864 12.1609C13.4842 12.2354 13.5031 12.375 13.4286 12.4728C13.3542 12.5706 13.2145 12.5895 13.1167 12.515L11.1495 11.0168C11.0517 10.9423 11.0328 10.8027 11.1073 10.7049Z" fill="white"/>
<path fill-rule="evenodd" clip-rule="evenodd" d="M13.4286 7.5765C13.5031 7.67428 13.4842 7.81393 13.3864 7.8884L11.4192 9.38662C11.3214 9.46109 11.1818 9.44219 11.1073 9.34441C11.0328 9.24662 11.0517 9.10698 11.1495 9.03251L13.1167 7.53428C13.2145 7.45981 13.3542 7.47871 13.4286 7.5765Z" fill="white"/>
</svg>

<svg xmlns="http://www.w3.org/2000/svg" width="20" height="20" fill="none" viewBox="0 0 20 20">
    <path fill="#989898" d="M17.657 18.143h.127v-.285h.101q.101 0 .142.024.066.04.067.165v.059l.003.021.002.01q0 .004.003.006h.118l-.004-.008q-.006-.009-.006-.037-.003-.03-.002-.054v-.054a.2.2 0 0 0-.04-.113q-.04-.056-.125-.07a.3.3 0 0 0 .105-.035q.071-.047.07-.143.002-.136-.111-.183a.6.6 0 0 0-.198-.026h-.252zm.363-.39a.3.3 0 0 1-.122.016h-.114v-.263h.109q.106 0 .153.028.049.027.048.106 0 .083-.075.113m.37-.434a.64.64 0 0 0-.469-.192.63.63 0 0 0-.463.192.63.63 0 0 0-.192.466q-.001.273.19.466a.63.63 0 0 0 .465.194.64.64 0 0 0 .469-.194.64.64 0 0 0 .193-.466.64.64 0 0 0-.193-.466m-.067.065a.54.54 0 0 1 .165.401.55.55 0 0 1-.165.403.55.55 0 0 1-.402.167.55.55 0 0 1-.4-.167.56.56 0 0 1-.165-.403q.001-.237.164-.401a.54.54 0 0 1 .401-.168.54.54 0 0 1 .402.168"/>
    <path fill="#009639" d="M1.137 15c.094.163.226.29.38.377L9.28 19.86a1.01 1.01 0 0 0 1.032 0l7.765-4.483a1.01 1.01 0 0 0 .516-.894V5.517a1.02 1.02 0 0 0-.517-.893L10.314.14a1.01 1.01 0 0 0-1.032 0L1.517 4.624A1.01 1.01 0 0 0 1 5.517v8.966c-.002.176.042.354.136.517"/>
    <path fill="#fff" fill-rule="evenodd" d="M4.065 6.613c0-.185.15-.335.334-.335h6.823c.185 0 .335.15.335.335v6.823c0 .184-.15.334-.335.334H4.399a.335.335 0 0 1-.334-.334zm.669.335V13.1h6.153V6.948zm8.268-1.126c0-.123.1-.222.223-.222h1.97c.122 0 .222.1.222.222v1.97c0 .123-.1.222-.223.222h-1.97a.223.223 0 0 1-.222-.222zm.445.223v1.524h1.525V6.045zm-.445 2.97c0-.123.1-.223.223-.223h1.97c.122 0 .222.1.222.223v1.97c0 .123-.1.222-.223.222h-1.97a.223.223 0 0 1-.222-.222zm.445.223v1.524h1.525V9.238zm-.445 2.97c0-.123.1-.223.223-.223h1.97c.122 0 .222.1.222.223v1.97c0 .122-.1.222-.223.222h-1.97a.223.223 0 0 1-.222-.222zm.445.223v1.524h1.525v-1.524z" clip-rule="evenodd"/>
    <path fill="#fff" fill-rule="evenodd" d="M11.154 10.025c0-.123.1-.223.223-.223h1.732a.223.223 0 0 1 0 .445h-1.732a.223.223 0 0 1-.223-.222m-.047.68a.223.223 0 0 1 .312-.042l1.967 1.498a.223.223 0 1 1-.27.354l-1.966-1.498a.223.223 0 0 1-.043-.312m2.322-3.128a.223.223 0 0 1-.043.311L11.42 9.387a.223.223 0 0 1-.27-.354l1.968-1.499a.223.223 0 0 1 .312.043" clip-rule="evenodd"/>
</svg>
